www/assets/icons/power_input.svg

<svg width="24" height="24" viewBox="0 0 24 24" xmlns="http://www.w3.org/2000/svg" fill='currentColor'><path d="M2.5 9V11H21.5V9H2.5ZM2.5 15H7.5V13H2.5V15ZM9.5 15H14.5V13H9.5V15ZM16.5 15H21.5V13H16.5V15Z"/></svg>

<svg xmlns="http://www.w3.org/2000/svg" width="24" height="24" viewBox="0 0 24 24" fill='currentColor'><path d="M2.5 9v2h19V9zm0 6h5v-2h-5zm7 0h5v-2h-5zm7 0h5v-2h-5z"/></svg>
